icons/folder-client.svg

<svg xmlns="http://www.w3.org/2000/svg" viewBox="0 0 16 16"><path id="folder" fill="#039be5" d="m6.922 3.768-.644-.536A1 1 0 0 0 5.638 3H2a1 1 0 0 0-1 1v8a1 1 0 0 0 1 1h12a1 1 0 0 0 1-1V5a1 1 0 0 0-1-1H7.562a1 1 0 0 1-.64-.232"/><path id="motive" fill="#b3e5fc" d="m15 6-7.5.004a.5.5 0 0 0-.5.5V12H5v2h6v-2H8V7.004h7zm-2.5 2a.5.5 0 0 0-.5.5v5a.5.5 0 0 0 .5.5h3a.5.5 0 0 0 .5-.5v-5a.5.5 0 0 0-.5-.5zm.5 1h2v3h-2z"/></svg>

<svg xmlns="http://www.w3.org/2000/svg" viewBox="0 0 16 16">
<path id="folder" fill="#039be5" d="m6.922 3.768-.644-.536A1 1 0 0 0 5.638 3H2a1 1 0 0 0-1 1v8a1 1 0 0 0 1 1h12a1 1 0 0 0 1-1V5a1 1 0 0 0-1-1H7.562a1 1 0 0 1-.64-.232" />
<path id="motive" fill="#b3e5fc" d="M 15 6 L 7.5 6.0039062 A 0.5 0.5 0 0 0 7 6.5039062 L 7 12 L 5 12 L 5 14 L 11 14 L 11 12 L 8 12 L 8 7.0039062 L 15 7.0039062 L 15 6 z M 12.5 8 A 0.5 0.5 0 0 0 12 8.5 L 12 13.5 A 0.5 0.5 0 0 0 12.5 14 L 15.5 14 A 0.5 0.5 0 0 0 16 13.5 L 16 8.5 A 0.5 0.5 0 0 0 15.5 8 L 12.5 8 z M 13 9 L 15 9 L 15 12 L 13 12 L 13 9 z " />
</svg>
